T: High Road To Glin, The
M: 4/4
L: 1/8
K: Dmaj
~ |{G}F{E}F AF EA,CE | ~ = ~ | {G}F{E}FAF EA,CE | ~ remove the grace notes ~ | FFAF EA,CE | ~~  | DF{G}F{E}F DEFA | ~ = ~  | DFFF DEFA | ~
